apps/ledger-live-desktop/src/renderer/images/nanoS2.v3.svg

<svg width="51" height="252" viewBox="0 0 51 252" fill="none" xmlns="http://www.w3.org/2000/svg">
<mask id="path-1-inside-1_250:8096" fill="white">
<path fill-rule="evenodd" clip-rule="evenodd" d="M27.693 134.578C25.3507 133.033 23.2423 130.639 21.6815 127.936C19.9861 124.999 18.9369 121.698 18.9371 118.726C18.9371 118.191 18.9713 117.684 19.0385 117.207C18.5306 116.824 18.0105 116.478 17.4812 116.172C14.5858 114.501 11.8259 114.253 9.70893 115.476C7.6088 116.688 6.45203 119.172 6.45215 122.469C6.45291 128.945 11.043 136.864 16.6847 140.121C19.5794 141.793 22.3393 142.04 24.4565 140.818C26.3936 139.7 27.5281 137.5 27.693 134.578Z"/>
</mask>
<path fill-rule="evenodd" clip-rule="evenodd" d="M27.693 134.578C25.3507 133.033 23.2423 130.639 21.6815 127.936C19.9861 124.999 18.9369 121.698 18.9371 118.726C18.9371 118.191 18.9713 117.684 19.0385 117.207C18.5306 116.824 18.0105 116.478 17.4812 116.172C14.5858 114.501 11.8259 114.253 9.70893 115.476C7.6088 116.688 6.45203 119.172 6.45215 122.469C6.45291 128.945 11.043 136.864 16.6847 140.121C19.5794 141.793 22.3393 142.04 24.4565 140.818C26.3936 139.7 27.5281 137.5 27.693 134.578Z" fill="black"/>
<path d="M21.6815 127.936L20.3879 128.683V128.683L21.6815 127.936ZM27.693 134.578L29.1844 134.662L29.2329 133.804L28.5153 133.331L27.693 134.578ZM18.9371 118.726L20.4309 118.726V118.726L18.9371 118.726ZM19.0385 117.207L20.5176 117.415L20.6404 116.543L19.9372 116.014L19.0385 117.207ZM17.4812 116.172L18.228 114.878L18.2279 114.878L17.4812 116.172ZM9.70893 115.476L8.96205 114.182L8.96205 114.182L9.70893 115.476ZM6.45215 122.469L4.95838 122.469V122.469L6.45215 122.469ZM16.6847 140.121L17.4317 138.827L17.4315 138.827L16.6847 140.121ZM24.4565 140.818L25.2032 142.112L25.2034 142.112L24.4565 140.818ZM20.3879 128.683C22.0393 131.543 24.2962 134.127 26.8707 135.825L28.5153 133.331C26.4053 131.939 24.4452 129.735 22.9752 127.189L20.3879 128.683ZM17.4434 118.726C17.4431 122.023 18.597 125.581 20.3879 128.683L22.9752 127.189C21.3751 124.418 20.4307 121.372 20.4309 118.726L17.4434 118.726ZM17.5593 116.998C17.4816 117.55 17.4434 118.128 17.4434 118.726L20.4309 118.726C20.4309 118.254 20.4611 117.817 20.5176 117.415L17.5593 116.998ZM19.9372 116.014C19.3844 115.597 18.8138 115.217 18.228 114.878L16.7345 117.466C17.2073 117.739 17.6767 118.051 18.1397 118.4L19.9372 116.014ZM18.2279 114.878C15.0622 113.051 11.7053 112.598 8.96205 114.182L10.4558 116.769C11.9465 115.909 14.1095 115.951 16.7345 117.466L18.2279 114.878ZM8.96205 114.182C6.23843 115.754 4.95826 118.855 4.95838 122.469L7.94591 122.469C7.94581 119.489 8.97917 117.622 10.4558 116.769L8.96205 114.182ZM4.95838 122.469C4.95881 126.034 6.21187 129.889 8.16073 133.251C10.1099 136.614 12.8374 139.625 15.9379 141.415L17.4315 138.827C14.8903 137.36 12.5019 134.783 10.7454 131.753C8.98861 128.722 7.94626 125.381 7.94591 122.469L4.95838 122.469ZM15.9377 141.415C19.103 143.242 22.4598 143.695 25.2032 142.112L23.7098 139.525C22.2189 140.385 20.0558 140.343 17.4317 138.827L15.9377 141.415ZM25.2034 142.112C27.7116 140.664 29.0011 137.909 29.1844 134.662L26.2016 134.493C26.055 137.091 25.0755 138.736 23.7096 139.525L25.2034 142.112Z" fill="black" mask="url(#path-1-inside-1_250:8096)"/>
<path d="M17.0589 139.474L17.059 139.474C19.8184 141.067 22.2798 141.212 24.0839 140.171L17.0589 139.474ZM17.0589 139.474C14.3779 137.926 11.9047 135.241 10.1 132.128C8.29524 129.014 7.2002 125.544 7.19984 122.469C7.19975 119.33 8.29481 117.155 10.0832 116.122C11.887 115.081 14.3484 115.226 17.1087 116.819C19.8006 118.373 22.2831 121.074 24.0895 124.202C25.8817 127.307 26.9679 130.761 26.9679 133.824M17.0589 139.474L26.9679 133.824M26.9679 133.824C26.9674 136.963 25.8723 139.139 24.084 140.171L26.9679 133.824Z" stroke="black" stroke-width="1.49376"/>
<path d="M14.308 172.222L14.3089 170.96L9.56302 168.215L9.55642 176.876L10.6087 177.485L10.6143 170.085L14.308 172.222Z" fill="black"/>
<path d="M25.2185 185.935L26.2708 186.543L26.2774 177.882L21.5317 175.137L21.5307 176.399L25.2241 178.535L25.2185 185.935Z" fill="black"/>
<path d="M25.1863 228.522L25.1806 235.921L21.4872 233.785L21.4863 235.047L26.2322 237.792L26.2388 229.131L25.1863 228.522Z" fill="black"/>
<path d="M20.9616 203.205C21.385 202.93 21.6125 202.343 21.613 201.638C21.6136 200.896 21.3664 200.072 20.8303 199.415L20.8304 199.242L21.5114 199.636L21.5122 198.498L17.7879 196.344L17.7854 199.697L18.7345 200.246L18.7361 198.08L19.2313 198.366C20.2733 198.969 20.6135 199.624 20.6127 200.774L20.6125 201.047C20.6116 202.198 20.3016 202.575 18.8675 201.746L16.9278 200.624C15.4835 199.789 15.1846 199.034 15.1854 197.883L15.1856 197.636C15.1864 196.51 15.5375 196.354 16.5074 196.903L16.5084 195.542C15.0846 194.842 14.1862 195.461 14.185 197.169C14.1843 197.998 14.4005 198.816 14.8127 199.574C15.4208 200.706 16.4523 201.735 17.8966 202.571C19.2894 203.376 20.3215 203.602 20.9616 203.205Z" fill="black"/>
<path d="M14.2657 220.936L14.2647 222.198L21.4867 226.375L21.4911 220.683L20.542 220.134L20.5386 224.564L14.2657 220.936Z" fill="black"/>
<path d="M10.5707 227.473L10.5764 220.074L9.52416 219.465L9.51753 228.127L14.2635 230.871L14.2644 229.609L10.5707 227.473Z" fill="black"/>
<path d="M21.4969 213.444L20.5478 212.895L20.5445 217.263L18.3365 215.986L18.3395 212.175L17.3903 211.626L17.3874 215.437L15.2207 214.184L15.2239 210.001L14.2747 209.453L14.2706 214.897L21.4926 219.074L21.4969 213.444Z" fill="black"/>
<path d="M21.5145 191.171L20.5653 190.622L20.562 194.99L18.3541 193.713L18.357 189.902L17.4079 189.353L17.405 193.164L15.2383 191.911L15.2415 187.729L14.2923 187.18L14.2882 192.624L21.5102 196.801L21.5145 191.171Z" fill="black"/>
<path d="M21.5004 209.138C21.5022 206.775 20.0069 205.031 17.8919 203.808C15.7459 202.567 14.2802 202.66 14.2785 204.986L14.2764 207.659L21.4984 211.835L21.5004 209.138ZM15.2263 206.97L15.2273 205.621C15.2282 204.346 15.4969 203.808 16.9415 204.644L18.8397 205.742C20.284 206.577 20.5519 207.425 20.551 208.7L20.55 210.049L15.2263 206.97Z" fill="black"/>
<path d="M21.517 188.265L18.6387 186.6L18.6401 184.744C18.6408 183.791 18.9712 183.598 19.7967 184.076L21.5197 185.072L21.5206 183.81L19.9627 182.909C18.8278 182.253 18.3943 182.324 18.2697 183.242L18.1251 183.159C17.9298 182.142 17.2286 181.105 16.3931 180.622C15.867 180.318 15.3921 180.291 15.0099 180.54C14.5348 180.859 14.2969 181.514 14.2962 182.541L14.294 185.325L21.516 189.502L21.517 188.265ZM15.2444 184.637L15.2459 182.657C15.2466 181.692 15.5151 181.5 16.2477 181.924L16.6809 182.175C17.4341 182.61 17.6918 183.094 17.691 184.071L17.6895 186.051L15.2444 184.637Z" fill="black"/>
<path fill-rule="evenodd" clip-rule="evenodd" d="M33.8881 31.9351C33.8881 27.4161 31.5136 23.2294 27.6353 20.91L10.9883 10.9544C9.32749 9.96116 7.28854 9.83375 5.51702 10.6125L3.4983 11.4999C4.15729 10.5114 5.02078 9.67591 6.03043 9.04983L17.8905 1.69551C20.0209 0.374467 22.7052 0.332243 24.8761 1.58563L43.8236 12.5251C47.2442 14.5 49.3434 18.1573 49.3234 22.107L48.8338 118.828C50.0874 122.675 50.7975 126.601 50.7975 130.248L50.7979 240.672L34.5335 250.868L34.5335 251.001L0.872663 231.566L0.872256 231.107L0.87207 121.123C0.872034 118.639 1.19065 116.38 1.79222 114.412L1.69697 114.371L1.8105 16.6713C1.81498 12.8141 6.00028 10.4144 9.33133 12.359L24.889 21.4414C29.4754 24.119 32.2954 29.0303 32.2956 34.3411L32.299 127.346L32.282 127.339C32.9732 129.306 33.5073 131.312 33.8888 133.316L33.8881 31.9351ZM2.46567 121.123L2.46545 230.647L28.0531 245.42L28.0628 245.403L32.9401 248.221L32.9398 139.638C32.9402 128.103 25.9255 114.669 17.3044 109.692C13.7063 107.615 10.2634 107.314 7.60947 108.846C4.34033 110.733 2.46529 115.208 2.46567 121.123ZM49.2047 239.79L49.2039 130.248C49.2039 128.669 49.0606 127.032 48.8007 125.374L48.746 136.175C48.7299 139.361 47.0238 142.299 44.2648 143.891L34.5334 149.51L34.5335 248.988L49.2047 239.79ZM43.045 36.5968C43.045 36.4725 42.902 36.4026 42.8039 36.4789L40.5764 38.2114C40.249 38.4661 40.0574 38.8577 40.0574 39.2726V53.8445C40.0574 53.9688 40.2004 54.0387 40.2985 53.9624L42.5259 52.2299C42.8534 51.9752 43.045 51.5836 43.045 51.1688V36.5968ZM41.8868 35.2998C42.9661 34.4604 44.5387 35.2295 44.5387 36.5968V51.1688C44.5387 52.0446 44.1344 52.8713 43.443 53.4091L41.2156 55.1415C40.1363 55.981 38.5637 55.2118 38.5637 53.8445V39.2726C38.5637 38.3967 38.968 37.57 39.6594 37.0323L41.8868 35.2998ZM43.045 78.4224C43.045 78.2981 42.902 78.2281 42.8039 78.3044L40.5764 80.0369C40.249 80.2916 40.0574 80.6832 40.0574 81.0981V95.67C40.0574 95.7943 40.2004 95.8642 40.2985 95.7879L42.5259 94.0555C42.8534 93.8008 43.045 93.4091 43.045 92.9943V78.4224ZM41.8868 77.1253C42.9661 76.2859 44.5387 77.055 44.5387 78.4224V92.9943C44.5387 93.8701 44.1344 94.6969 43.443 95.2346L41.2156 96.967C40.1363 97.8065 38.5637 97.0373 38.5637 95.67V81.0981C38.5637 80.2223 38.968 79.3955 39.6594 78.8578L41.8868 77.1253Z" fill="black"/>
</svg>

<svg xmlns="http://www.w3.org/2000/svg" width="51" height="252" fill="none" viewBox="0 0 51 252"><mask id="a" fill="#fff"><path fill-rule="evenodd" d="M27.693 134.578c-2.342-1.545-4.45-3.939-6.012-6.642-1.695-2.937-2.744-6.238-2.744-9.21q0-.803.101-1.519a15 15 0 0 0-1.557-1.035c-2.895-1.671-5.655-1.919-7.772-.696-2.1 1.212-3.257 3.696-3.257 6.993 0 6.476 4.591 14.395 10.233 17.652 2.894 1.672 5.654 1.919 7.772.697 1.937-1.118 3.071-3.318 3.236-6.24" clip-rule="evenodd"/></mask><path fill="#000" fill-rule="evenodd" d="M27.693 134.578c-2.342-1.545-4.45-3.939-6.012-6.642-1.695-2.937-2.744-6.238-2.744-9.21q0-.803.101-1.519a15 15 0 0 0-1.557-1.035c-2.895-1.671-5.655-1.919-7.772-.696-2.1 1.212-3.257 3.696-3.257 6.993 0 6.476 4.591 14.395 10.233 17.652 2.894 1.672 5.654 1.919 7.772.697 1.937-1.118 3.071-3.318 3.236-6.24" clip-rule="evenodd"/><path fill="#000" d="m21.682 127.936-1.294.747zm6.011 6.642 1.491.084.049-.858-.718-.473zm-8.756-15.852h1.494zm.101-1.519 1.48.208.122-.872-.703-.529zm-1.557-1.035.747-1.294zm-7.772-.696-.747-1.294zm-3.257 6.993H4.958zm10.233 17.652.747-1.294zm7.772.697.746 1.294zm-4.07-12.135c1.652 2.86 3.91 5.444 6.484 7.142l1.644-2.494c-2.11-1.392-4.07-3.596-5.54-6.142zm-2.944-9.957c0 3.297 1.154 6.855 2.945 9.957l2.587-1.494c-1.6-2.771-2.544-5.817-2.544-8.463zm.116-1.728q-.116.83-.116 1.728h2.988q0-.708.087-1.311zm2.378-.984a17 17 0 0 0-1.709-1.136l-1.494 2.588q.71.41 1.406.934zm-1.71-1.136c-3.165-1.827-6.522-2.28-9.265-.696l1.494 2.587c1.49-.86 3.654-.818 6.279.697zm-9.265-.696c-2.724 1.572-4.004 4.673-4.004 8.287h2.988c0-2.98 1.033-4.847 2.51-5.7zm-4.004 8.287c0 3.565 1.254 7.42 3.203 10.782s4.676 6.374 7.777 8.164l1.493-2.588c-2.54-1.467-4.93-4.044-6.686-7.074s-2.799-6.372-2.8-9.284zm10.98 18.946c3.165 1.827 6.522 2.28 9.265.697l-1.493-2.587c-1.491.86-3.654.818-6.278-.698zm9.265.697c2.509-1.448 3.798-4.203 3.981-7.45l-2.982-.169c-.147 2.598-1.126 4.243-2.492 5.032z" mask="url(#a)"/><path stroke="#000" stroke-width="1.494" d="M17.059 139.474c2.76 1.593 5.22 1.738 7.025.697zm0 0c-2.681-1.548-5.154-4.233-6.959-7.346s-2.9-6.584-2.9-9.659c0-3.139 1.095-5.314 2.883-6.347 1.804-1.041 4.265-.896 7.026.697 2.692 1.554 5.174 4.255 6.98 7.383 1.793 3.105 2.879 6.559 2.879 9.622m-9.91 5.65 9.91-5.65m0 0c0 3.139-1.096 5.315-2.884 6.347z"/><path fill="#000" d="M14.308 172.222v-1.262l-4.745-2.745-.007 8.661 1.053.609.005-7.4zm10.911 13.713 1.052.608.006-8.661-4.745-2.745-.001 1.262 3.693 2.136zm-.033 42.587-.005 7.399-3.694-2.136v1.262l4.745 2.745.007-8.661zm-4.224-25.317c.423-.275.65-.862.651-1.567 0-.742-.247-1.566-.783-2.223v-.173l.681.394.001-1.138-3.724-2.154-.003 3.353.95.549.001-2.166.495.286c1.042.603 1.382 1.258 1.382 2.408v.273c-.001 1.151-.311 1.528-1.745.699l-1.94-1.122c-1.445-.835-1.743-1.59-1.743-2.741v-.247c.001-1.126.352-1.282 1.322-.733l.001-1.361c-1.423-.7-2.322-.081-2.323 1.627 0 .829.215 1.647.628 2.405.608 1.132 1.64 2.161 3.084 2.997 1.392.805 2.425 1.031 3.065.634m-6.696 17.731-.001 1.262 7.222 4.177.004-5.692-.949-.549-.003 4.43zm-3.696 6.537.006-7.399-1.052-.609-.006 8.662 4.746 2.744v-1.262zm10.927-14.029-.95-.549-.003 4.368-2.207-1.277.003-3.811-.95-.549-.003 3.811-2.166-1.253.003-4.183-.95-.548-.003 5.444 7.222 4.177zm.018-22.273-.95-.549-.003 4.368-2.208-1.277.003-3.811-.95-.549-.002 3.811-2.167-1.253.004-4.182-.95-.549-.004 5.444 7.222 4.177zm-.015 17.967c.002-2.363-1.493-4.107-3.608-5.33-2.146-1.241-3.612-1.148-3.613 1.178l-.003 2.673 7.222 4.176zm-6.274-2.168.001-1.349c.001-1.275.27-1.813 1.715-.977l1.898 1.098c1.444.835 1.712 1.683 1.711 2.958l-.001 1.349zm6.291-18.705-2.878-1.665.001-1.856c0-.953.331-1.146 1.157-.668l1.723.996v-1.262l-1.557-.901c-1.135-.656-1.569-.585-1.693.333l-.145-.083c-.195-1.017-.896-2.054-1.732-2.537-.526-.304-1-.331-1.383-.082-.475.319-.713.974-.714 2.001l-.002 2.784 7.222 4.177zm-6.273-3.628.002-1.98c0-.965.27-1.157 1.002-.733l.433.251c.753.435 1.01.919 1.01 1.896l-.002 1.98z"/><path fill="#000" fill-rule="evenodd" d="M33.888 31.935c0-4.519-2.374-8.706-6.253-11.025l-16.647-9.956a5.98 5.98 0 0 0-5.471-.341l-2.019.887A8.3 8.3 0 0 1 6.03 9.05l11.86-7.354a6.8 6.8 0 0 1 6.986-.11l18.948 10.94a11 11 0 0 1 5.5 9.581l-.49 96.721c1.253 3.847 1.963 7.773 1.963 11.42v110.424l-16.263 10.196v.133L.872 231.566V121.123c-.001-2.484.318-4.743.92-6.711l-.096-.041.113-97.7c.005-3.857 4.19-6.257 7.521-4.312l15.558 9.082a14.94 14.94 0 0 1 7.407 12.9l.003 93.005-.017-.007a41.4 41.4 0 0 1 1.607 5.977zM2.466 121.123v109.524l25.587 14.773.01-.017 4.877 2.818V139.638c0-11.535-7.014-24.969-15.636-29.946-3.598-2.077-7.04-2.378-9.695-.846-3.269 1.887-5.144 6.362-5.143 12.277M49.205 239.79l-.001-109.542c0-1.579-.143-3.216-.403-4.874l-.055 10.801a8.96 8.96 0 0 1-4.481 7.716l-9.732 5.619v99.478zm-6.16-203.193a.15.15 0 0 0-.241-.118l-2.228 1.732a1.35 1.35 0 0 0-.519 1.062v14.571a.15.15 0 0 0 .241.118l2.228-1.732c.327-.255.519-.646.519-1.061zM41.887 35.3c1.08-.84 2.652-.07 2.652 1.297v14.572c0 .876-.405 1.702-1.096 2.24l-2.227 1.733c-1.08.839-2.652.07-2.652-1.298v-14.57c0-.876.404-1.703 1.095-2.24zm1.158 43.122a.15.15 0 0 0-.241-.118l-2.228 1.733a1.35 1.35 0 0 0-.519 1.061V95.67a.15.15 0 0 0 .241.118l2.228-1.733c.327-.254.519-.646.519-1.06zm-1.158-1.297c1.08-.84 2.652-.07 2.652 1.297v14.572c0 .876-.405 1.703-1.096 2.24l-2.227 1.733c-1.08.84-2.652.07-2.652-1.297V81.098c0-.876.404-1.703 1.095-2.24z" clip-rule="evenodd"/></svg>
